public/images/icon-sunny-home--leaf.svg

<svg width="29" height="29" viewBox="0 0 29 29" fill="none" xmlns="http://www.w3.org/2000/svg">
<path d="M8.625 3.375C8.25 3.375 7.875 3.42188 7.5 3.51562V0H9.75V3.51562C9.375 3.42188 9 3.375 8.625 3.375ZM11.4375 4.21875C12.7031 2.95312 13.5469 2.10938 13.9219 1.73438L15.5156 3.32812C15.1406 3.70312 14.2969 4.54688 13.0312 5.8125C12.6562 5.15625 12.0938 4.59375 11.4375 4.21875ZM7.64062 11.6719C6.46875 11.2031 5.625 10.0781 5.625 8.76562C5.625 7.03125 7.03125 5.625 8.76562 5.625C10.2188 5.625 11.4375 6.60938 11.7656 7.92188L7.64062 11.6719ZM5.8125 13.0312C4.54688 14.2969 3.70312 15.1406 3.32812 15.5156L1.73438 13.9219L4.21875 11.4375C4.59375 12.0938 5.15625 12.6562 5.8125 13.0312ZM3.375 8.625C3.375 9 3.42188 9.375 3.51562 9.75H0V7.5H3.51562C3.42188 7.875 3.375 8.25 3.375 8.625ZM4.21875 5.8125L1.73438 3.32812L3.32812 1.73438C3.70312 2.10938 4.54688 2.95312 5.8125 4.21875C5.15625 4.59375 4.59375 5.15625 4.21875 5.8125ZM25.7812 18.375V28.125H8.01562V18.375H5.625V16.5L16.875 6.375L28.125 16.5V18.375H25.7812ZM14.625 16.125V20.625H19.125V16.125H14.625Z" fill="#91C15D"/>
</svg>

<svg width="29" height="29" viewBox="0 0 29 29" fill="none" xmlns="http://www.w3.org/2000/svg"><path d="M8.625 3.375c-.375 0-.75.047-1.125.14V0h2.25v3.516a4.624 4.624 0 0 0-1.125-.141Zm2.813.844 2.484-2.485 1.594 1.594-2.485 2.485a4.331 4.331 0 0 0-1.594-1.594ZM7.64 11.672c-1.172-.469-2.016-1.594-2.016-2.906a3.14 3.14 0 0 1 3.14-3.141c1.454 0 2.672.984 3 2.297l-4.124 3.75Zm-1.829 1.36-2.484 2.484-1.594-1.594 2.485-2.485a4.331 4.331 0 0 0 1.593 1.594ZM3.376 8.624c0 .375.047.75.14 1.125H0V7.5h3.516c-.094.375-.141.75-.141 1.125Zm.844-2.813L1.734 3.329l1.594-1.594L5.813 4.22a4.332 4.332 0 0 0-1.594 1.593Zm21.56 12.565v9.75H8.016v-9.75H5.625V16.5l11.25-10.125L28.125 16.5v1.875h-2.344Zm-11.156-2.25v4.5h4.5v-4.5h-4.5Z" fill="#91C15D"/></svg>
